X:1
T:Polska frn Rommerdal
R:Polska
Z:Anton Teljebck 2007-12-01
N:Spelas med kort 3:a
S:Knd genom Zara Helje
O:Rommerdal, Norge
N:Det finns fler ltar frn Norge
M:3/4
L:1/8
K:D
A2 B2 c2 | d2 e2 f2 | g>f e>g f<e   | d>f e>d c<B |
A2 B2 c2 | d2 e2 f2 | g>f e>d c/B/c | d2 d4      :|
A>a a>g a_b | a>g =f>e fa | g>=f e>d cd    | e>d cc/B/ A2 | 
A>a a>g a_b | a>g =f>e fa | g>=f e>d c/B/c | d2 d4       :|
